packages/foundations/assets/icons/functional/images/food/beverage_12.svg

<svg width="12" height="12" viewBox="0 0 12 12" fill="none" xmlns="http://www.w3.org/2000/svg">
<g clip-path="url(#clip0_232_247)">
<path fill-rule="evenodd" clip-rule="evenodd" d="M2.41313 5.4L6.01217 5.40108C6.38657 5.40108 6.65566 5.74038 6.60886 6.09144L6.02339 10.2762C5.98822 10.5692 5.73035 10.7883 5.43731 10.8H3.03437C2.74133 10.7883 2.48345 10.5692 2.43653 10.2762L1.80755 6.09156C1.74899 5.7282 2.03801 5.4 2.41313 5.4ZM5.33267 6.60258H3.10955L3.54929 9.60438H4.90895L5.33267 6.60258ZM6.59999 2.4H7.80293L7.79909 2.9988C7.79909 3.5136 7.93949 4.01676 8.18519 4.47306L8.73515 5.49102C8.89895 5.79522 8.99855 6.12306 8.99855 6.45126V9.6L7.79777 9.60216C7.46957 9.60216 7.19999 9.86004 7.19999 10.2C7.19999 10.5282 7.46957 10.7978 7.79777 10.7978L9.59633 10.8C9.92453 10.8 10.2 10.5187 10.2 10.2022V6.45126C10.2 5.9238 10.0535 5.39634 9.79559 4.9275L9.24467 3.89598C9.09233 3.61464 8.99855 3.3165 8.99855 3V2.1612C8.99855 1.63368 8.56481 1.2 8.02565 1.2H6.37289C5.83367 1.2 5.39999 1.63368 5.39999 2.1612L5.40047 3.0105C5.40047 3.3615 5.64617 3.60726 5.99717 3.60726C6.34823 3.60726 6.59999 3.351 6.59999 3V2.4Z" fill="#1A1C1F"/>
</g>
<defs>
<clipPath id="clip0_232_247">
<rect width="12" height="12" fill="white"/>
</clipPath>
</defs>
</svg>

<svg xmlns="http://www.w3.org/2000/svg" width="12" height="12" fill="none"><g clip-path="url(#a)"><path fill="#1A1C1F" fill-rule="evenodd" d="m2.413 5.4 3.6.001c.374 0 .643.34.596.69l-.586 4.185a.61.61 0 0 1-.586.524H3.034a.634.634 0 0 1-.597-.524l-.63-4.184a.604.604 0 0 1 .606-.692m2.92 1.203H3.11l.44 3.001h1.359zM6.6 2.4h1.203l-.004.599c0 .515.14 1.018.386 1.474l.55 1.018c.164.304.264.632.264.96V9.6l-1.201.002a.593.593 0 0 0-.598.598.6.6 0 0 0 .598.598l1.798.002a.613.613 0 0 0 .604-.598v-3.75c0-.528-.146-1.056-.404-1.524l-.551-1.032A1.9 1.9 0 0 1 8.999 3v-.839a.97.97 0 0 0-.973-.961H6.373a.97.97 0 0 0-.973.961v.85c0 .35.246.596.597.596A.585.585 0 0 0 6.6 3z" clip-rule="evenodd"/></g><defs><clipPath id="a"><path fill="#fff" d="M0 0h12v12H0z"/></clipPath></defs></svg>
